dist/img/pink3.svg

<svg width="355" height="332" fill="none" xmlns="http://www.w3.org/2000/svg"><g clip-path="url(#clip0_146_296)"><path d="M1 1s.91 67.04 57.45 95.05c56.54 28.02 108.52 3 128.59-13.01 20.06-16.01 59.28-54.03 93.93-57.03 52.76-4.57 83.83 52.33 69.31 90.05-17.33 45.02-63.61 59.49-138.62 64.16-78.43 4.88-146.87 26.9-158.68 59.91-17.26 48.2 56.23 78.31 77.11 85.79" stroke="#FC1684" stroke-width="2" stroke-linecap="round" stroke-dasharray="4 4"/><path d="M129.49 325.66c-1.03-2.13-.69-5.51 0-7.7 1.15 3.66 3.08 7.18 5.99 9.79-3.88.18-7.5 1.93-10.77 3.95.99-2.25 2.54-4.87 4.79-6.03l-.01-.01z" fill="#FC1684"/></g><defs><clipPath id="clip0_146_296"><path fill="#fff" d="M0 0h354.86v331.69H0z"/></clipPath></defs></svg>

<svg width="355" height="332" viewBox="0 0 355 332" fill="none" xmlns="http://www.w3.org/2000/svg">
<g clip-path="url(#clip0_146_296)">
<path d="M1 1C1 1 1.91 68.04 58.45 96.05C114.99 124.07 166.97 99.05 187.04 83.04C207.1 67.03 246.32 29.01 280.97 26.01C333.73 21.44 364.8 78.34 350.28 116.06C332.95 161.08 286.67 175.55 211.66 180.22C133.23 185.1 64.79 207.12 52.98 240.13C35.72 288.33 109.21 318.44 130.09 325.92" stroke="#FC1684" stroke-width="2" stroke-linecap="round" stroke-dasharray="4 4"/>
<path d="M129.49 325.66C128.46 323.53 128.8 320.15 129.49 317.96C130.64 321.62 132.57 325.14 135.48 327.75C131.6 327.93 127.98 329.68 124.71 331.7C125.7 329.45 127.25 326.83 129.5 325.67L129.49 325.66Z" fill="#FC1684"/>
</g>
<defs>
<clipPath id="clip0_146_296">
<rect width="354.86" height="331.69" fill="white"/>
</clipPath>
</defs>
</svg>
